symbols/web/manage_history/materialsymbolsrounded/manage_history_wght200gradN25_24px.svg

<svg xmlns="http://www.w3.org/2000/svg" height="24" width="24"><path d="M11.95 4.15q3.25 0 5.563 2.287Q19.825 8.725 19.825 12q0 .125-.013.238-.012.112-.012.212h-.925q.025-.1.025-.212V12q0-2.9-2.025-4.925T11.95 5.05q-1.525 0-2.875.65T6.7 7.45h1.975q.2 0 .337.137.138.138.138.338t-.138.325q-.137.125-.337.125h-2.75q-.325 0-.55-.213-.225-.212-.225-.537V4.85q0-.175.138-.313.137-.137.337-.137.175 0 .313.137.137.138.137.313v1.925q1.15-1.25 2.663-1.938 1.512-.687 3.212-.687Zm2.15 10.575-2.3-2.3q-.125-.125-.175-.25-.05-.125-.05-.3v-4.35q0-.175.138-.313.137-.137.312-.137.2 0 .338.137.137.138.137.313V11.8l2.1 2.1Zm-2.45 5.125q-2.75-.075-4.825-1.838-2.075-1.762-2.55-4.337-.075-.2.025-.388.1-.187.3-.237.2-.05.338.063.137.112.212.312.5 2.2 2.15 3.7t3.85 1.775l.575.95h-.075Zm7.225 2.425q-.5-.075-.925-.313-.425-.237-.75-.637l-.95.3q-.1.025-.188-.013-.087-.037-.137-.112l-.1-.175q-.075-.125-.063-.225.013-.1.113-.175l.725-.575q-.2-.5-.2-1.025 0-.525.2-1.025l-.75-.6q-.1-.075-.1-.2t.05-.225l.1-.175q.05-.1.162-.162.113-.063.213-.013l.95.35q.325-.35.737-.575.413-.225.913-.35l.125-.9q.025-.125.113-.2.087-.075.212-.075h.2q.125 0 .213.075.087.075.112.2l.125.9q.5.125.938.375.437.25.762.625l.95-.35q.1-.05.213.012.112.063.187.163l.1.175q.05.1.038.225-.013.125-.113.2l-.75.6q.125.475.138.975.012.5-.138.95l.8.625q.075.075.088.175.012.1-.038.225l-.1.175q-.05.075-.15.112-.1.038-.2.013l-1.025-.325q-.325.4-.762.65-.438.25-.938.325l-.125.925q-.025.125-.112.187-.088.063-.213.063h-.2q-.125 0-.212-.063-.088-.062-.113-.187Zm.55-.825q.875 0 1.5-.625t.625-1.5q0-.9-.625-1.525-.625-.625-1.5-.625t-1.5.625q-.625.625-.625 1.525 0 .875.625 1.5t1.5.625Z"/></svg>

<svg xmlns="http://www.w3.org/2000/svg" height="24" width="24"><path d="M11.95 4.15Q15.2 4.15 17.513 6.437Q19.825 8.725 19.825 12Q19.825 12.125 19.812 12.238Q19.8 12.35 19.8 12.45H18.875Q18.9 12.35 18.9 12.238Q18.9 12.125 18.9 12Q18.9 9.1 16.875 7.075Q14.85 5.05 11.95 5.05Q10.425 5.05 9.075 5.7Q7.725 6.35 6.7 7.45H8.675Q8.875 7.45 9.012 7.587Q9.15 7.725 9.15 7.925Q9.15 8.125 9.012 8.25Q8.875 8.375 8.675 8.375H5.925Q5.6 8.375 5.375 8.162Q5.15 7.95 5.15 7.625V4.85Q5.15 4.675 5.288 4.537Q5.425 4.4 5.625 4.4Q5.8 4.4 5.938 4.537Q6.075 4.675 6.075 4.85V6.775Q7.225 5.525 8.738 4.837Q10.25 4.15 11.95 4.15ZM14.1 14.725 11.8 12.425Q11.675 12.3 11.625 12.175Q11.575 12.05 11.575 11.875V7.525Q11.575 7.35 11.713 7.212Q11.85 7.075 12.025 7.075Q12.225 7.075 12.363 7.212Q12.5 7.35 12.5 7.525V11.8L14.6 13.9ZM11.65 19.85Q8.9 19.775 6.825 18.012Q4.75 16.25 4.275 13.675Q4.2 13.475 4.3 13.287Q4.4 13.1 4.6 13.05Q4.8 13 4.938 13.113Q5.075 13.225 5.15 13.425Q5.65 15.625 7.3 17.125Q8.95 18.625 11.15 18.9L11.725 19.85Q11.7 19.85 11.688 19.85Q11.675 19.85 11.65 19.85ZM18.875 22.275Q18.375 22.2 17.95 21.962Q17.525 21.725 17.2 21.325L16.25 21.625Q16.15 21.65 16.062 21.612Q15.975 21.575 15.925 21.5L15.825 21.325Q15.75 21.2 15.762 21.1Q15.775 21 15.875 20.925L16.6 20.35Q16.4 19.85 16.4 19.325Q16.4 18.8 16.6 18.3L15.85 17.7Q15.75 17.625 15.75 17.5Q15.75 17.375 15.8 17.275L15.9 17.1Q15.95 17 16.062 16.938Q16.175 16.875 16.275 16.925L17.225 17.275Q17.55 16.925 17.962 16.7Q18.375 16.475 18.875 16.35L19 15.45Q19.025 15.325 19.113 15.25Q19.2 15.175 19.325 15.175H19.525Q19.65 15.175 19.738 15.25Q19.825 15.325 19.85 15.45L19.975 16.35Q20.475 16.475 20.913 16.725Q21.35 16.975 21.675 17.35L22.625 17Q22.725 16.95 22.838 17.012Q22.95 17.075 23.025 17.175L23.125 17.35Q23.175 17.45 23.163 17.575Q23.15 17.7 23.05 17.775L22.3 18.375Q22.425 18.85 22.438 19.35Q22.45 19.85 22.3 20.3L23.1 20.925Q23.175 21 23.188 21.1Q23.2 21.2 23.15 21.325L23.05 21.5Q23 21.575 22.9 21.612Q22.8 21.65 22.7 21.625L21.675 21.3Q21.35 21.7 20.913 21.95Q20.475 22.2 19.975 22.275L19.85 23.2Q19.825 23.325 19.738 23.387Q19.65 23.45 19.525 23.45H19.325Q19.2 23.45 19.113 23.387Q19.025 23.325 19 23.2ZM19.425 21.45Q20.3 21.45 20.925 20.825Q21.55 20.2 21.55 19.325Q21.55 18.425 20.925 17.8Q20.3 17.175 19.425 17.175Q18.55 17.175 17.925 17.8Q17.3 18.425 17.3 19.325Q17.3 20.2 17.925 20.825Q18.55 21.45 19.425 21.45Z"/></svg>
